; generated by Slic3r 1.2.9 on 2015-10-30 at 23:38:49

; external perimeters extrusion width = 0.35mm
; perimeters extrusion width = 0.44mm
; infill extrusion width = 0.44mm
; solid infill extrusion width = 0.31mm
; top infill extrusion width = 0.38mm

M107
G28 ; home all axes
M203 X192 Y208 Z3 ; Speed limits to minimize skipped steps when moving really fast courtesy of forum.lulzbot.com user 1013

G21 ; set units to millimeters
G90 ; use absolute coordinates
M82 ; use absolute distances for extrusion
G92 E0
G1 E-1.60000 F1800.00000
G92 E0
G1 Z0.250 F7800.000
G1 X94.235 Y94.235 F7800.000
G1 E1.60000 F1800.00000
G1 X94.691 Y93.780 E1.61733 F1200.000
G1 X95.260 Y93.303 E1.63730
G1 X95.973 Y92.803 E1.66075
G1 X96.616 Y92.432 E1.68072
G1 X97.406 Y92.063 E1.70417
G1 X98.104 Y91.809 E1.72415
G1 X98.946 Y91.584 E1.74760
G1 X99.676 Y91.455 E1.76756
G1 X100.916 Y91.363 E1.80101
G1 X176.916 Y91.363 E3.84573
G1 X177.287 Y91.379 E3.85572
G1 X178.156 Y91.455 E3.87918 F1200.000
G1 X178.887 Y91.584 E3.89915
G1 X179.729 Y91.809 E3.92260
G1 X180.426 Y92.063 E3.94257
G1 X181.216 Y92.432 E3.96602
G1 X181.859 Y92.803 E3.98599
G1 X182.573 Y93.303 E4.00944
G1 X183.142 Y93.780 E4.02941
G1 X183.758 Y94.396 E4.05286
G1 X184.235 Y94.965 E4.07284
G1 X184.735 Y95.679 E4.09629
G1 X185.106 Y96.322 E4.11626
G1 X185.475 Y97.112 E4.13972
G1 X185.728 Y97.809 E4.15968
G1 X185.954 Y98.652 E4.18315
G1 X186.083 Y99.382 E4.20310
G1 X186.175 Y100.621 E4.23654
G1 X186.175 Y152.621 E5.63556
G1 X186.083 Y153.861 E5.66900
G1 X185.954 Y154.592 E5.68897
G1 X185.728 Y155.434 E5.71242
G1 X185.475 Y156.131 E5.73239
G1 X185.106 Y156.921 E5.75584
G1 X184.735 Y157.564 E5.77581
G1 X184.235 Y158.279 E5.79928
G1 X183.758 Y158.847 E5.81924
G1 X183.142 Y159.463 E5.84268
G1 X182.558 Y159.951 E5.86315
G1 X181.859 Y160.440 E5.88610
G1 X181.216 Y160.811 E5.90608
G1 X180.426 Y161.180 E5.92953
G1 X179.729 Y161.434 E5.94949
G1 X178.887 Y161.659 E5.97295
G1 X178.156 Y161.788 E5.99292
G1 X176.916 Y161.880 E6.02636
G1 X100.916 Y161.880 E8.07108
G1 X99.677 Y161.788 E8.10452
G1 X98.946 Y161.659 E8.12449
G1 X98.104 Y161.434 E8.14794
G1 X97.407 Y161.180 E8.16791
G1 X96.616 Y160.811 E8.19137
G1 X95.973 Y160.440 E8.21134
G1 X95.260 Y159.940 E8.23479
G1 X94.691 Y159.463 E8.25476
G1 X94.075 Y158.847 E8.27821
G1 X93.597 Y158.278 E8.29818
G1 X93.097 Y157.564 E8.32163
G1 X92.726 Y156.921 E8.34160
G1 X92.358 Y156.131 E8.36505
G1 X92.104 Y155.434 E8.38502
G1 X91.878 Y154.592 E8.40848
G1 X91.750 Y153.861 E8.42845
G1 X91.657 Y152.621 E8.46188
G1 X91.657 Y100.621 E9.86091
G1 X91.750 Y99.382 E9.89435
G1 X91.878 Y98.651 E9.91432
G1 X92.104 Y97.809 E9.93776
G1 X92.358 Y97.112 E9.95774
G1 X92.726 Y96.321 E9.98119
G1 X93.097 Y95.679 E10.00116
G1 X93.597 Y94.965 E10.02461
G1 X94.198 Y94.272 E10.04927
G1 E8.44927 F1800.00000
G92 E0
G1 X104.691 Y153.995 F7800.000
G1 E1.60000 F1800.00000
G1 X104.395 Y154.630 E1.61884 F1200.000
G1 X103.993 Y155.203 E1.63767
G1 X103.498 Y155.698 E1.65651
G1 X102.925 Y156.100 E1.67535
G1 X102.290 Y156.396 E1.69419
G1 X101.614 Y156.577 E1.71302
G1 X100.916 Y156.638 E1.73186
G1 X100.219 Y156.577 E1.75070
G1 X99.542 Y156.396 E1.76953
G1 X98.908 Y156.100 E1.78837
G1 X98.334 Y155.698 E1.80721
G1 X97.839 Y155.203 E1.82605
G1 X97.438 Y154.630 E1.84488
G1 X97.142 Y153.995 E1.86372
G1 X96.961 Y153.319 E1.88256
G1 X96.900 Y152.621 E1.90139
G1 X96.961 Y151.924 E1.92023
G1 X97.142 Y151.248 E1.93907
G1 X97.438 Y150.613 E1.95791
G1 X97.839 Y150.040 E1.97674
G1 X98.334 Y149.545 E1.99558
G1 X98.908 Y149.143 E2.01442
G1 X99.542 Y148.847 E2.03325
G1 X100.219 Y148.666 E2.05209
G1 X100.875 Y148.608 E2.06982 F1200.000
G1 X101.612 Y148.665 E2.08969
G1 X102.290 Y148.847 E2.10859
G1 X102.925 Y149.143 E2.12742
G1 X103.498 Y149.545 E2.14626
G1 X103.993 Y150.040 E2.16510
G1 X104.395 Y150.613 E2.18394
G1 X104.691 Y151.248 E2.20277
G1 X104.872 Y151.924 E2.22161
G1 X104.933 Y152.621 E2.24045
G1 X104.872 Y153.319 E2.25928
G1 X104.704 Y153.945 E2.27671
G1 X104.447 Y153.906 F7800.000
G1 X104.170 Y154.500 E2.29433 F1200.000
G1 X103.794 Y155.036 E2.31195
G1 X103.331 Y155.499 E2.32956
G1 X102.795 Y155.875 E2.34718
G1 X102.201 Y156.152 E2.36480
G1 X101.569 Y156.321 E2.38242
G1 X100.916 Y156.378 E2.40004
G1 X100.264 Y156.321 E2.41766
G1 X99.631 Y156.152 E2.43528
G1 X99.038 Y155.875 E2.45289
G1 X98.501 Y155.499 E2.47051
G1 X98.038 Y155.036 E2.48813
G1 X97.663 Y154.500 E2.50575
G1 X97.386 Y153.906 E2.52337
G1 X97.216 Y153.274 E2.54099
G1 X97.159 Y152.621 E2.55861
G1 X97.216 Y151.969 E2.57622
G1 X97.386 Y151.337 E2.59384
G1 X97.663 Y150.743 E2.61146
G1 X98.038 Y150.207 E2.62908
G1 X98.501 Y149.744 E2.64670
G1 X99.038 Y149.368 E2.66432
G1 X99.631 Y149.091 E2.68193
G1 X100.264 Y148.922 E2.69955
G1 X100.876 Y148.868 E2.71610 F1200.000
G1 X101.568 Y148.922 E2.73475
G1 X102.201 Y149.091 E2.75239
G1 X102.795 Y149.368 E2.77001
G1 X103.331 Y149.744 E2.78763
G1 X103.794 Y150.207 E2.80525
G1 X104.170 Y150.743 E2.82287
G1 X104.447 Y151.337 E2.84049
G1 X104.616 Y151.969 E2.85811
G1 X104.673 Y152.621 E2.87572
G1 X104.616 Y153.274 E2.89334
G1 X104.460 Y153.856 E2.90955
G1 X104.664 Y154.181 F7800.000
G1 X111.229 Y148.384 F7800.000
G1 X138.916 Y129.440 E3.81214 F1200.000
G1 X166.604 Y148.384 E4.71473
G1 X160.533 Y149.116 E4.87925
G1 X156.222 Y149.540 E4.99579
G1 X151.903 Y149.870 E5.11234
G1 X147.577 Y150.107 E5.22888
G1 X143.248 Y150.248 E5.34542
G1 X138.916 Y150.295 E5.46197
G1 X134.585 Y150.248 E5.57851
G1 X130.255 Y150.107 E5.69506
G1 X125.930 Y149.870 E5.81160
G1 X121.611 Y149.540 E5.92815
G1 X117.300 Y149.116 E6.04469
G1 X111.281 Y148.390 E6.20780
G1 X111.942 Y148.209 F7800.000
G1 X138.916 Y129.754 E7.08712 F1200.000
G1 X165.890 Y148.209 E7.96644
G1 X160.505 Y148.858 E8.11238
G1 X156.199 Y149.282 E8.22878
G1 X151.886 Y149.612 E8.34517
G1 X147.566 Y149.848 E8.46156
G1 X143.242 Y149.989 E8.57795
G1 X138.916 Y150.037 E8.69435
G1 X134.590 Y149.989 E8.81074
G1 X130.266 Y149.848 E8.92713
G1 X125.947 Y149.612 E9.04352
G1 X121.633 Y149.282 E9.15992
G1 X117.328 Y148.858 E9.27631
G1 X111.995 Y148.216 E9.42084
G1 X112.656 Y148.035 F7800.000
G1 X138.916 Y130.067 E10.27689 F1200.000
G1 X165.176 Y148.035 E11.13295
G1 X160.476 Y148.601 E11.26031
G1 X156.177 Y149.024 E11.37655
G1 X151.869 Y149.354 E11.49279
G1 X147.555 Y149.589 E11.60903
G1 X143.237 Y149.731 E11.72527
G1 X138.916 Y149.778 E11.84151
G1 X134.596 Y149.731 E11.95775
G1 X130.278 Y149.589 E12.07400
G1 X125.964 Y149.354 E12.19024
G1 X121.656 Y149.024 E12.30648
G1 X117.356 Y148.601 E12.42272
G1 X112.708 Y148.041 E12.54867
G1 X112.386 Y147.813 F7800.000
G1 X138.916 Y123.803 F7800.000
G1 X111.229 Y104.859 E13.45126 F1200.000
G1 X117.300 Y104.127 E13.61578
G1 X121.611 Y103.703 E13.73232
G1 X125.930 Y103.372 E13.84887
G1 X130.255 Y103.136 E13.96541
G1 X134.585 Y102.995 E14.08196
G1 X138.736 Y102.949 E14.19366
G1 X143.248 Y102.995 E14.31504
G1 X147.577 Y103.136 E14.43159
G1 X151.903 Y103.372 E14.54814
G1 X156.222 Y103.703 E14.66468
G1 X160.354 Y104.110 E14.77638
G1 X166.606 Y104.858 E14.94579
G1 X138.960 Y123.773 E15.84704
G1 X138.916 Y123.489 F7800.000
G1 X111.942 Y105.034 E16.72636 F1200.000
G1 X117.328 Y104.385 E16.87230
G1 X121.633 Y103.961 E16.98870
G1 X125.947 Y103.631 E17.10509
G1 X130.266 Y103.395 E17.22148
G1 X134.590 Y103.254 E17.33788
G1 X138.736 Y103.208 E17.44942
G1 X143.242 Y103.254 E17.57065
G1 X147.566 Y103.395 E17.68705
G1 X151.886 Y103.631 E17.80345
G1 X156.199 Y103.961 E17.91984
G1 X160.326 Y104.367 E18.03139
G1 X165.891 Y105.033 E18.18220
G1 X138.960 Y123.460 E19.06015
G1 X138.916 Y123.176 F7800.000
G1 X112.656 Y105.208 E19.91621 F1200.000
G1 X117.356 Y104.642 E20.04358
G1 X121.656 Y104.219 E20.15982
G1 X125.964 Y103.889 E20.27606
G1 X130.278 Y103.654 E20.39230
G1 X134.596 Y103.512 E20.50854
G1 X138.736 Y103.467 E20.61994
G1 X143.236 Y103.512 E20.74102
G1 X147.555 Y103.654 E20.85726
G1 X151.869 Y103.889 E20.97350
G1 X156.177 Y104.219 E21.08974
G1 X160.297 Y104.624 E21.20114
G1 X165.177 Y105.208 E21.33336
G1 X138.960 Y123.146 E22.18802
G1 X138.685 Y123.438 F7800.000
G1 X134.797 Y126.621 F7800.000
G1 X109.025 Y144.255 E23.02818 F1200.000
G1 X107.309 Y141.806 E23.10863
G1 X105.072 Y137.009 E23.25103
G1 X103.702 Y131.897 E23.39343
G1 X103.240 Y126.625 E23.53583
G1 X103.700 Y121.352 E23.67822
G1 X105.070 Y116.239 E23.82062
G1 X107.306 Y111.442 E23.96302
G1 X109.022 Y108.991 E24.04352
G1 X134.754 Y126.592 E24.88227
G1 X134.339 Y126.621 F7800.000
G1 X109.090 Y143.897 E25.70536 F1200.000
G1 X107.534 Y141.676 E25.77832
G1 X105.316 Y136.920 E25.91950
G1 X103.957 Y131.852 E26.06067
G1 X103.500 Y126.624 E26.20185
G1 X103.956 Y121.397 E26.34303
G1 X105.314 Y116.328 E26.48421
G1 X107.531 Y111.572 E26.62539
G1 X109.087 Y109.349 E26.69839
G1 X134.295 Y126.592 E27.52008
G1 X133.880 Y126.621 F7800.000
G1 X109.155 Y143.539 E28.32610 F1200.000
G1 X107.759 Y141.546 E28.39156
G1 X105.560 Y136.832 E28.53152
G1 X104.213 Y131.807 E28.67148
G1 X103.759 Y126.624 E28.81144
G1 X104.212 Y121.442 E28.95140
G1 X105.558 Y116.417 E29.09136
G1 X107.756 Y111.702 E29.23132
G1 X109.153 Y109.707 E29.29682
G1 X133.837 Y126.592 E30.10144
G1 X134.112 Y126.884 F7800.000
G1 X143.035 Y126.621 F7800.000
G1 X168.810 Y108.991 E30.94160 F1200.000
G1 X170.526 Y111.442 E31.02210
G1 X172.763 Y116.239 E31.16450
G1 X174.132 Y121.352 E31.30690
G1 X174.593 Y126.625 E31.44930
G1 X174.131 Y131.897 E31.59169
G1 X172.761 Y137.009 E31.73409
G1 X170.523 Y141.806 E31.87649
G1 X168.808 Y144.255 E31.95694
G1 X143.079 Y126.651 E32.79569
G1 X143.494 Y126.621 F7800.000
G1 X168.745 Y109.349 E33.61878 F1200.000
G1 X170.301 Y111.572 E33.69179
G1 X172.518 Y116.328 E33.83296
G1 X173.876 Y121.397 E33.97414
G1 X174.333 Y126.624 E34.11532
G1 X173.875 Y131.852 E34.25650
G1 X172.516 Y136.920 E34.39768
G1 X170.298 Y141.676 E34.53886
G1 X168.743 Y143.897 E34.61181
G1 X143.537 Y126.651 E35.43349
G1 X143.952 Y126.621 F7800.000
G1 X168.680 Y109.707 E36.23952 F1200.000
G1 X170.076 Y111.702 E36.30502
G1 X172.274 Y116.417 E36.44498
G1 X173.620 Y121.442 E36.58495
G1 X174.073 Y126.624 E36.72491
G1 X173.619 Y131.807 E36.86487
G1 X172.272 Y136.832 E37.00483
G1 X170.073 Y141.546 E37.14479
G1 X168.678 Y143.539 E37.21024
G1 X143.996 Y126.651 E38.01486
G1 X143.721 Y126.359 F7800.000
G1 X175.113 Y96.608 F7800.000
G1 X175.158 Y96.741 E38.01862 F1200.000
G1 X174.778 Y96.918 E38.02991
G1 X174.167 Y97.345 E38.04997
G1 X173.640 Y97.873 E38.07002
G1 X173.213 Y98.483 E38.09008
G1 X172.898 Y99.159 E38.11014
G1 X172.705 Y99.879 E38.13019
G1 X172.640 Y100.621 E38.15025
G1 X172.705 Y101.364 E38.17030
G1 X172.898 Y102.084 E38.19036
G1 X173.213 Y102.760 E38.21041
G1 X173.640 Y103.370 E38.23047
G1 X174.167 Y103.897 E38.25053
G1 X174.778 Y104.325 E38.27058
G1 X175.454 Y104.640 E38.29064
G1 X176.174 Y104.833 E38.31069
G1 X176.916 Y104.898 E38.33075
G1 X177.659 Y104.833 E38.35080
G1 X178.379 Y104.640 E38.37086
G1 X179.054 Y104.325 E38.39091
G1 X179.665 Y103.897 E38.41097
G1 X180.192 Y103.370 E38.43103
G1 X180.599 Y102.789 E38.45011
G1 X180.720 Y102.851 E38.45375
G1 X180.293 Y104.072 E38.48856
G1 X179.657 Y106.061 E38.54473
G1 X179.074 Y108.066 E38.60091
G1 X178.543 Y110.085 E38.65708
G1 X178.066 Y112.118 E38.71326
G1 X177.642 Y114.163 E38.76943
G1 X177.273 Y116.218 E38.82561
G1 X176.958 Y118.282 E38.88178
G1 X176.697 Y120.353 E38.93796
G1 X176.491 Y122.431 E38.99413
G1 X176.339 Y124.513 E39.05031
G1 X176.242 Y126.620 E39.10706
G1 X176.333 Y128.728 E39.16382
G1 X176.479 Y130.812 E39.22002
G1 X176.681 Y132.891 E39.27621
G1 X176.939 Y134.963 E39.33241
G1 X177.240 Y136.943 E39.38627
G1 X177.622 Y139.084 E39.44479
G1 X178.046 Y141.130 E39.50099
G1 X178.525 Y143.163 E39.55719
G1 X179.059 Y145.182 E39.61338
G1 X179.646 Y147.186 E39.66958
G1 X180.288 Y149.174 E39.72577
G1 X180.714 Y150.384 E39.76028
G1 X180.594 Y150.446 E39.76393
G1 X180.192 Y149.873 E39.78275
G1 X179.665 Y149.345 E39.80281
G1 X179.054 Y148.918 E39.82286
G1 X178.379 Y148.603 E39.84292
G1 X177.655 Y148.409 E39.86307
G1 X176.874 Y148.349 E39.88416
G1 X176.174 Y148.410 E39.90307
G1 X175.454 Y148.603 E39.92313
G1 X174.778 Y148.918 E39.94318
G1 X174.167 Y149.345 E39.96324
G1 X173.640 Y149.873 E39.98329
G1 X173.213 Y150.483 E40.00335
G1 X172.898 Y151.159 E40.02341
G1 X172.705 Y151.879 E40.04346
G1 X172.640 Y152.621 E40.06352
G1 X172.705 Y153.364 E40.08357
G1 X172.898 Y154.084 E40.10363
G1 X173.213 Y154.760 E40.12368
G1 X173.640 Y155.370 E40.14374
G1 X174.167 Y155.897 E40.16380
G1 X174.778 Y156.325 E40.18385
G1 X175.158 Y156.502 E40.19514
G1 X175.113 Y156.635 E40.19891
G1 X173.150 Y156.176 E40.25312
G1 X170.081 Y155.516 E40.33758
G1 X167.001 Y154.911 E40.42204
G1 X163.910 Y154.360 E40.50650
G1 X160.810 Y153.864 E40.59096
G1 X157.702 Y153.424 E40.67542
G1 X154.587 Y153.039 E40.75988
G1 X151.465 Y152.710 E40.84434
G1 X148.337 Y152.436 E40.92880
G1 X145.206 Y152.217 E41.01326
G1 X142.071 Y152.055 E41.09772
G1 X138.916 Y151.947 E41.18264
G1 X135.762 Y152.055 E41.26755
G1 X132.627 Y152.217 E41.35201
G1 X129.495 Y152.436 E41.43647
G1 X126.368 Y152.710 E41.52093
G1 X123.246 Y153.039 E41.60539
G1 X120.130 Y153.424 E41.68985
G1 X117.022 Y153.864 E41.77431
G1 X113.922 Y154.360 E41.85877
G1 X110.832 Y154.911 E41.94323
G1 X107.751 Y155.516 E42.02769
G1 X104.682 Y156.176 E42.11215
G1 X102.720 Y156.635 E42.16637
G1 X102.674 Y156.502 E42.17013
G1 X103.054 Y156.325 E42.18142
G1 X103.665 Y155.897 E42.20148
G1 X104.192 Y155.370 E42.22153
G1 X104.620 Y154.760 E42.24159
G1 X104.935 Y154.084 E42.26165
G1 X105.128 Y153.364 E42.28170
G1 X105.193 Y152.621 E42.30176
G1 X105.128 Y151.879 E42.32181
G1 X104.935 Y151.159 E42.34187
G1 X104.620 Y150.483 E42.36192
G1 X104.192 Y149.873 E42.38198
G1 X103.665 Y149.345 E42.40204
G1 X103.054 Y148.918 E42.42209
G1 X102.379 Y148.603 E42.44215
G1 X101.655 Y148.409 E42.46230
G1 X100.874 Y148.349 E42.48339
G1 X100.174 Y148.410 E42.50230
G1 X99.454 Y148.603 E42.52235
G1 X98.778 Y148.918 E42.54241
G1 X98.167 Y149.345 E42.56247
G1 X97.640 Y149.873 E42.58252
G1 X97.239 Y150.446 E42.60135
G1 X97.118 Y150.384 E42.60499
G1 X97.545 Y149.174 E42.63950
G1 X98.186 Y147.186 E42.69570
G1 X98.774 Y145.182 E42.75189
G1 X99.307 Y143.163 E42.80809
G1 X99.786 Y141.130 E42.86428
G1 X100.211 Y139.084 E42.92048
G1 X100.580 Y137.029 E42.97667
G1 X100.893 Y134.963 E43.03287
G1 X101.151 Y132.891 E43.08906
G1 X101.354 Y130.812 E43.14526
G1 X101.500 Y128.728 E43.20145
G1 X101.591 Y126.621 E43.25819
G1 X101.500 Y124.515 E43.31492
G1 X101.354 Y122.431 E43.37112
G1 X101.151 Y120.352 E43.42732
G1 X100.893 Y118.279 E43.48351
G1 X100.580 Y116.214 E43.53971
G1 X100.211 Y114.159 E43.59590
G1 X99.786 Y112.113 E43.65210
G1 X99.327 Y110.165 E43.70596
G1 X98.774 Y108.061 E43.76448
G1 X98.186 Y106.057 E43.82068
G1 X97.545 Y104.069 E43.87688
G1 X97.118 Y102.859 E43.91139
G1 X97.239 Y102.797 E43.91503
G1 X97.640 Y103.370 E43.93386
G1 X98.167 Y103.897 E43.95391
G1 X98.778 Y104.325 E43.97397
G1 X99.454 Y104.640 E43.99402
G1 X100.174 Y104.833 E44.01408
G1 X100.916 Y104.898 E44.03414
G1 X101.659 Y104.833 E44.05419
G1 X102.379 Y104.640 E44.07425
G1 X103.054 Y104.325 E44.09430
G1 X103.665 Y103.897 E44.11436
G1 X104.192 Y103.370 E44.13441
G1 X104.620 Y102.760 E44.15447
G1 X104.935 Y102.084 E44.17453
G1 X105.128 Y101.364 E44.19458
G1 X105.193 Y100.621 E44.21464
G1 X105.128 Y99.879 E44.23469
G1 X104.935 Y99.159 E44.25475
G1 X104.638 Y98.522 E44.27366
G1 X104.195 Y97.875 E44.29475
G1 X103.665 Y97.345 E44.31490
G1 X103.054 Y96.918 E44.33496
G1 X102.674 Y96.741 E44.34625
G1 X102.720 Y96.608 E44.35001
G1 X104.682 Y97.067 E44.40423
G1 X107.751 Y97.727 E44.48869
G1 X110.832 Y98.332 E44.57315
G1 X113.922 Y98.883 E44.65761
G1 X117.022 Y99.379 E44.74207
G1 X120.130 Y99.819 E44.82653
G1 X123.246 Y100.204 E44.91099
G1 X126.368 Y100.533 E44.99545
G1 X129.495 Y100.807 E45.07991
G1 X132.627 Y101.026 E45.16437
G1 X135.762 Y101.188 E45.24883
G1 X138.916 Y101.296 E45.33374
G1 X142.071 Y101.188 E45.41866
G1 X145.206 Y101.026 E45.50312
G1 X148.337 Y100.807 E45.58758
G1 X151.465 Y100.533 E45.67204
G1 X154.587 Y100.204 E45.75650
G1 X157.702 Y99.819 E45.84096
G1 X160.810 Y99.379 E45.92542
G1 X163.910 Y98.883 E46.00988
G1 X167.001 Y98.332 E46.09435
